public/figma-home/social-media-icon-square-instagram.svg

<svg preserveAspectRatio="none" width="100%" height="100%" overflow="visible" style="display: block;" viewBox="0 0 19 19" fill="none" xmlns="http://www.w3.org/2000/svg">
<g id="Social Media Icon Square/Instagram">
<path id="Instagram" d="M9.84961 0.39502C13.4447 0.39502 15.2424 0.394824 16.5371 1.25146C17.1153 1.63402 17.6106 2.12936 17.9932 2.70752C18.8498 4.00225 18.8496 5.79995 18.8496 9.39502C18.8496 12.9901 18.8498 14.7878 17.9932 16.0825C17.6106 16.6607 17.1153 17.156 16.5371 17.5386C15.2424 18.3952 13.4447 18.395 9.84961 18.395C6.25454 18.395 4.45684 18.3952 3.16211 17.5386C2.58395 17.156 2.08861 16.6607 1.70605 16.0825C0.849414 14.7878 0.849609 12.9901 0.849609 9.39502C0.849609 5.79995 0.849414 4.00225 1.70605 2.70752C2.08861 2.12936 2.58395 1.63402 3.16211 1.25146C4.45684 0.394824 6.25454 0.39502 9.84961 0.39502ZM9.85059 4.73584C7.27745 4.73595 5.19156 6.8219 5.19141 9.39502C5.19141 11.9683 7.27736 14.0551 9.85059 14.0552C12.4239 14.0552 14.5098 11.9683 14.5098 9.39502C14.5096 6.82183 12.4238 4.73584 9.85059 4.73584ZM9.85059 6.31201C11.5532 6.31201 12.9334 7.69246 12.9336 9.39502C12.9336 11.0977 11.5533 12.478 9.85059 12.478C8.14798 12.4779 6.76758 11.0976 6.76758 9.39502C6.76773 7.69252 8.14808 6.31212 9.85059 6.31201ZM14.6943 3.40674C14.0898 3.40674 13.5998 3.89697 13.5996 4.50146C13.5996 5.10612 14.0897 5.59619 14.6943 5.59619C15.2989 5.59613 15.7891 5.10608 15.7891 4.50146C15.7889 3.897 15.2988 3.4068 14.6943 3.40674Z" fill="var(--fill-0, white)"/>
</g>
</svg>

<svg xmlns="http://www.w3.org/2000/svg" fill="none" overflow="visible" preserveAspectRatio="none" style="display:block" viewBox="0 0 19 19"><path fill="var(--fill-0, white)" d="M9.85.395c3.595 0 5.392 0 6.687.856a5.2 5.2 0 0 1 1.456 1.457c.857 1.294.857 3.092.857 6.687s0 5.393-.857 6.688a5.2 5.2 0 0 1-1.456 1.456c-1.295.856-3.092.856-6.687.856s-5.393 0-6.688-.856a5.2 5.2 0 0 1-1.456-1.457C.85 14.789.85 12.99.85 9.395s0-5.393.856-6.687A5.2 5.2 0 0 1 3.162 1.25C4.457.395 6.255.395 9.85.395m0 4.34a4.66 4.66 0 1 0 .001 9.32 4.66 4.66 0 0 0 0-9.32m0 1.577a3.083 3.083 0 1 1 0 6.167 3.083 3.083 0 0 1 0-6.167m4.844-2.905a1.095 1.095 0 1 0 0 2.19 1.095 1.095 0 0 0 0-2.19"/></svg>
